images/clock.svg

<svg viewBox="0 0 64 64" fill="none" xmlns="http://www.w3.org/2000/svg">
<g clip-path="url(#clip0_297080_1787)">
<path d="M62.5933 30.6025C62.5899 13.6978 48.8828 -0.00341734 31.9775 6.39362e-07C15.0728 0.00341861 1.37158 13.7109 1.375 30.6157C1.37793 43.9316 9.98877 55.7178 22.6738 59.7681C22.7949 59.8062 22.9209 59.8257 23.0474 59.8252C23.2886 59.8247 23.5249 59.7603 23.7324 59.6377C24.0024 59.478 24.2041 59.2241 24.2988 58.9248L32.0288 34.4248C34.1421 34.4141 35.8462 32.6919 35.835 30.5791C35.8242 28.4658 34.1025 26.7617 31.9893 26.7725C31.4209 26.7749 30.8599 26.9058 30.3491 27.1553L20.1372 16.9419C19.6304 16.4526 18.8232 16.4668 18.334 16.9731C17.8564 17.4678 17.8564 18.251 18.334 18.7456L28.5405 28.9639C27.7573 30.5625 28.2051 32.4922 29.6133 33.582L22.248 56.9277C7.69238 51.5659 0.239258 35.4199 5.60108 20.8643C10.9629 6.30859 27.1089 -1.14453 41.6646 4.21729C56.2202 9.5791 63.6733 25.7256 58.3115 40.2808C55.6919 47.3921 50.3096 53.1431 43.3872 56.2275L42.5913 52.479C42.4458 51.79 41.7686 51.3496 41.0796 51.4956C40.8623 51.542 40.6606 51.6441 40.4946 51.792L32.8208 58.6431C32.2944 59.1113 32.2476 59.9175 32.7163 60.4439C32.8687 60.6148 33.064 60.7417 33.2827 60.8115L43.0801 63.9385C43.7505 64.1538 44.4688 63.7852 44.6841 63.1143C44.7524 62.9024 44.7637 62.6768 44.7178 62.459L43.9356 58.7808C55.2642 54.0049 62.6196 42.8965 62.5933 30.6025ZM31.9844 29.3272C32.6885 29.3272 33.2598 29.8984 33.2598 30.6025C33.2598 31.3071 32.6885 31.8779 31.9844 31.8779C31.2798 31.8779 30.709 31.3071 30.709 30.6025C30.709 29.8984 31.2798 29.3272 31.9844 29.3272ZM36.1851 59.0552L40.5532 55.1587L41.7588 60.8394L36.1851 59.0552Z" fill="#2E2F42"/>
<path d="M30.709 6.37012V8.9209C30.709 9.62549 31.2798 10.1963 31.9844 10.1963C32.6885 10.1963 33.2598 9.62549 33.2598 8.9209V6.37012C33.2598 5.66602 32.6885 5.09473 31.9844 5.09473C31.2798 5.09473 30.709 5.66602 30.709 6.37012Z" fill="#4D5AE5"/>
<path d="M7.75195 29.3271C7.04736 29.3271 6.47656 29.8984 6.47656 30.6025C6.47656 31.3071 7.04736 31.8779 7.75195 31.8779H10.3027C11.0073 31.8779 11.5781 31.3071 11.5781 30.6025C11.5781 29.8984 11.0073 29.3271 10.3027 29.3271H7.75195Z" fill="#4D5AE5"/>
<path d="M56.2162 31.8779C56.9208 31.8779 57.4916 31.3071 57.4916 30.6025C57.4916 29.8984 56.9208 29.3271 56.2162 29.3271H53.6655C52.9614 29.3271 52.3901 29.8984 52.3901 30.6025C52.3901 31.3071 52.9614 31.8779 53.6655 31.8779H56.2162Z" fill="#4D5AE5"/>
</g>
<defs>
<clipPath id="clip0_297080_1787">
<rect width="64" height="64" fill="white"/>
</clipPath>
</defs>
</svg>

<svg xmlns="http://www.w3.org/2000/svg" fill="none" viewBox="0 0 64 64"><g clip-path="url(#a)"><path fill="#2E2F42" d="M62.593 30.602C62.59 13.698 48.883-.003 31.977 0 15.073.003 1.372 13.71 1.375 30.616a30.61 30.61 0 0 0 21.299 29.152c.12.038.247.058.373.057.242 0 .478-.065.685-.187.27-.16.472-.414.567-.713l7.73-24.5a3.826 3.826 0 1 0-1.68-7.27L20.137 16.942a1.275 1.275 0 0 0-1.803 1.804l10.207 10.218a3.752 3.752 0 0 0 1.072 4.618l-7.365 23.346C7.692 51.566.239 35.42 5.601 20.864 10.963 6.31 27.11-1.145 41.665 4.217 56.22 9.58 63.673 25.726 58.312 40.281a28.087 28.087 0 0 1-14.925 15.947l-.796-3.749a1.275 1.275 0 0 0-2.096-.687l-7.674 6.851a1.275 1.275 0 0 0 .462 2.169l9.797 3.127a1.275 1.275 0 0 0 1.638-1.48l-.782-3.678a30.51 30.51 0 0 0 18.657-28.178Zm-30.609-1.275a1.276 1.276 0 1 1 0 2.552 1.276 1.276 0 0 1 0-2.552Zm4.201 29.728 4.368-3.896 1.206 5.68-5.574-1.784Z"/><path fill="#4D5AE5" d="M30.709 6.37v2.55a1.275 1.275 0 1 0 2.55 0V6.37a1.276 1.276 0 0 0-2.55 0ZM7.752 29.327a1.275 1.275 0 0 0 0 2.55h2.55a1.275 1.275 0 1 0 0-2.55h-2.55ZM56.216 31.878a1.275 1.275 0 1 0 0-2.55h-2.55a1.276 1.276 0 0 0 0 2.55h2.55Z"/></g><defs><clipPath id="a"><path fill="#fff" d="M0 0h64v64H0z"/></clipPath></defs></svg>
